static/pLetter.svg

<svg fill="none" height="85" viewBox="0 0 70 85" width="70" xmlns="http://www.w3.org/2000/svg"><rect fill="#000" height="85" rx="5" width="70"/><path d="m22.34 44.9c-.36-1.44-1.36-2.16-3-2.16-2.84 0-5.12 1.42-6.84 4.26-1.56 2.48-2.34 5.08-2.34 7.8s.6 4.86 1.8 6.42c1.24 1.8 3.12 2.7 5.64 2.7 4.72 0 9.3-3.18 13.74-9.54 5.88-8.64 9.72-17.18 11.52-25.62.04-.16.14-.6.3-1.32s.3-1.34.42-1.86c.28-1.2 1.06-1.8 2.34-1.8.72 0 1.08.3 1.08.9 0 .44-.14 1.24-.42 2.4-1.08 5.24-2.96 10.68-5.64 16.32h.96c3.28 0 6.98-.58 11.1-1.74 6.84-1.96 10.26-5.26 10.26-9.9 0-2.84-1.32-5.34-3.96-7.5-1.92-1.68-4.54-3-7.86-3.96-2.88-.76-5.9-1.14-9.06-1.14h-1.14c-.28 4.2-1.3 8.96-3.06 14.28-1.88 5.4-4.06 10.22-6.54 14.46-3.24 5.76-6.52 9.82-9.84 12.18-1.92 1.36-3.52 2.04-4.8 2.04-.36 0-.54-.14-.54-.42 0-.24.16-.38.48-.42 1.24-.2 2.14-.44 2.7-.72 3.68-1.8 7.44-6 11.28-12.6 2.84-5 5.08-10.06 6.72-15.18 1.64-5.16 2.58-9.68 2.82-13.56-3.6.16-7.24.82-10.92 1.98-3.64 1.16-6.62 2.94-8.94 5.34-1.52 1.52-2.28 3.16-2.28 4.92s.52 3.24 1.56 4.44c.88 1.16 2.08 2 3.6 2.52.68.24 1.28.44 1.8.6.56.12.84.24.84.36 0 .2-.16.26-.48.18h-.06c-2.44-.36-4.72-1.4-6.84-3.12s-3.18-3.74-3.18-6.06c0-1.68.7-3.22 2.1-4.62 2.36-2.4 5.68-4.2 9.96-5.4s8.6-1.9 12.96-2.1v-3.84c0-.32.12-.48.36-.48s.36.64.36 1.92v2.34h2.7c2.88 0 5.88.3 9 .9 3.56.8 6.46 1.98 8.7 3.54 3.04 2.12 4.56 4.7 4.56 7.74 0 3-1.46 5.66-4.38 7.98-2.24 1.84-5.14 3.3-8.7 4.38-3.56 1.04-7.38 1.56-11.46 1.56-.4 0-.8 0-1.2 0-6.56 13.52-14.14 20.28-22.74 20.28-2.96 0-5.32-.96-7.08-2.88-1.76-1.88-2.64-4.4-2.64-7.56 0-3.2.98-6.08 2.94-8.64 2-2.56 4.58-3.84 7.74-3.84.92 0 1.76.26 2.52.78.84.44 1.26 1.12 1.26 2.04 0 .24-.06.38-.18.42z" fill="#fff"/></svg>

<svg width="70" height="85" viewBox="0 0 70 85" fill="none" xmlns="http://www.w3.org/2000/svg">
<rect width="70" height="85" rx="5" fill="black"/>
<path d="M22.34 44.9C21.98 43.46 20.98 42.74 19.34 42.74C16.5 42.74 14.22 44.16 12.5 47C10.94 49.48 10.16 52.08 10.16 54.8C10.16 57.52 10.76 59.66 11.96 61.22C13.2 63.02 15.08 63.92 17.6 63.92C22.32 63.92 26.9 60.74 31.34 54.38C37.22 45.74 41.06 37.2 42.86 28.76C42.9 28.6 43 28.16 43.16 27.44C43.32 26.72 43.46 26.1 43.58 25.58C43.86 24.38 44.64 23.78 45.92 23.78C46.64 23.78 47 24.08 47 24.68C47 25.12 46.86 25.92 46.58 27.08C45.5 32.32 43.62 37.76 40.94 43.4H41.9C45.18 43.4 48.88 42.82 53 41.66C59.84 39.7 63.26 36.4 63.26 31.76C63.26 28.92 61.94 26.42 59.3 24.26C57.38 22.58 54.76 21.26 51.44 20.3C48.56 19.54 45.54 19.16 42.38 19.16H41.24C40.96 23.36 39.94 28.12 38.18 33.44C36.3 38.84 34.12 43.66 31.64 47.9C28.4 53.66 25.12 57.72 21.8 60.08C19.88 61.44 18.28 62.12 17 62.12C16.64 62.12 16.46 61.98 16.46 61.7C16.46 61.46 16.62 61.32 16.94 61.28C18.18 61.08 19.08 60.84 19.64 60.56C23.32 58.76 27.08 54.56 30.92 47.96C33.76 42.96 36 37.9 37.64 32.78C39.28 27.62 40.22 23.1 40.46 19.22C36.86 19.38 33.22 20.04 29.54 21.2C25.9 22.36 22.92 24.14 20.6 26.54C19.08 28.06 18.32 29.7 18.32 31.46C18.32 33.22 18.84 34.7 19.88 35.9C20.76 37.06 21.96 37.9 23.48 38.42C24.16 38.66 24.76 38.86 25.28 39.02C25.84 39.14 26.12 39.26 26.12 39.38C26.12 39.58 25.96 39.64 25.64 39.56H25.58C23.14 39.2 20.86 38.16 18.74 36.44C16.62 34.72 15.56 32.7 15.56 30.38C15.56 28.7 16.26 27.16 17.66 25.76C20.02 23.36 23.34 21.56 27.62 20.36C31.9 19.16 36.22 18.46 40.58 18.26V14.42C40.58 14.1 40.7 13.94 40.94 13.94C41.18 13.94 41.3 14.58 41.3 15.86C41.3 17.14 41.3 17.92 41.3 18.2H44C46.88 18.2 49.88 18.5 53 19.1C56.56 19.9 59.46 21.08 61.7 22.64C64.74 24.76 66.26 27.34 66.26 30.38C66.26 33.38 64.8 36.04 61.88 38.36C59.64 40.2 56.74 41.66 53.18 42.74C49.62 43.78 45.8 44.3 41.72 44.3C41.32 44.3 40.92 44.3 40.52 44.3C33.96 57.82 26.38 64.58 17.78 64.58C14.82 64.58 12.46 63.62 10.7 61.7C8.94 59.82 8.06 57.3 8.06 54.14C8.06 50.94 9.04 48.06 11 45.5C13 42.94 15.58 41.66 18.74 41.66C19.66 41.66 20.5 41.92 21.26 42.44C22.1 42.88 22.52 43.56 22.52 44.48C22.52 44.72 22.46 44.86 22.34 44.9Z" fill="white"/>
</svg>
